X: 10511
M: C|
L: 1/8
K: G
uD |\
g>d (e/d/)c/B/ B<d B<G | (.[EC]>.B) (c/B/).A/.G/ F<A F<D |
(.g>.d) (f/e/)d/c/ B<d B<G | (.[EC]>.c) (B/A/)G/F/ [G2B,2] [GB,] ||
uc |\
(.b>.d') (.b>.g) (.f>.a) (.f>.d) | (g/f/)e/d/ (.e>.f) g>d B<G |
(3bd'b (3gbd' (3c'bc' (3ee'd' | (3c'bc' (3eaf g2 "^D.C.""_Segue Reel."g |]


